X:1
T:Jesus, King Most Wonderful
T:Jesus, King Most Wonderful
T:Johann Miles Blose
T:Johann Miles Blose, 1901
T:Public Domain Courtesy of the Cyber Hymnal™
C:Johann Miles Blose
Z:Public Domain
Z:Courtesy of the Cyber Hymnal™
%%score ( 1 2 ) ( 3 4 )
L:1/8
Q:1/4=105
M:4/4
K:D
V:1 treble 
V:2 treble 
V:3 bass 
V:4 bass 
V:1
 ([DF][EG]) | [FA]2 [^E^G]2 [FA]2 [=GB]2 | [FA]3 [EG] [EG]2 ([CE][DF]) | [EG]2 [^DF]2 [EG]2 [CA]2 | %4
w: 1.~O *|Je- sus, light of|all be- low, Thou *|fount of life and|
w: 2.~May *|ev- ery heart con-|fess Thy name, And *|ev- er Thee a-|
w: 3.~Thee *|may our tongues for-|ev- er bless; Thee *|may we love a-|
 [DF]6 ([DF][EG]) | [FA]2 [^E^G]2 [FA]2 [Fd]2 | [Fd]3 [Fc] [Fc]2 [Fc]2 | [Fd]2 [FB]2 [EA]2 [D^G]2 | %8
w: fire, Sur- *|pass- ing all the|joys we know, All|that we can de-|
w: dore; And *|seek- ing Thee it-|self in- flame, To|seek Thee more and|
w: lone; And *|ev- er in our|lives ex- press The|im- age of Thine|
 [CA]6 ||"^Refrain" !fermata![EA]2 | [FA]2 [Fd]2 [Gc]2 [GB]2 |!>(! [GB]3!>)! [FA] [FA]2 z2 | %12
w: sire.||||
w: more.|O|Je- sus, king most|won- der- ful,|
w: own.||||
!<(! [FA]3!<)! [EG] [EG]2 z2 |!<(! [DG]3!<)! [DF] [DF]2 [FA]2 | [FA]2 [Fd]2 [Gc]2 [GB]2 | %15
w: |||
w: Won- der- ful,|won- der- ful, O|Je- sus, king most|
w: |||
!>(! [GB]3!>)! [FA] [FA]2 [EG]2 | [DF]2 [DA]2 [CG]2 [CE]2 | D6 |] %18
w: |||
w: won- der- ful, In|whom all joys are|found.|
w: |||
V:2
 x2 | x8 | x8 | x8 | x8 | x8 | x8 | x8 | x6 || x2 | x8 | x8 | x8 | x8 | x8 | x8 | x8 | D6 |] %18
V:3
 [D,A,]2 | [D,D]2 [D,B,]2 [D,A,]2 [D,D]2 | [A,,A,C]3 [A,,A,C] [A,,A,C]2 [A,,A,]2 | %3
 [A,,A,]2 [A,,A,]2 [A,,A,]2 [A,,A,]2 | [D,A,]6 [D,A,]2 | [D,D]2 [D,B,]2 [D,A,]2 [B,,B,]2 | %6
 [F,B,]3 [F,^A,] [F,A,]2 [E,A,]2 | [D,B,]2 [D,D]2 [E,C]2 [E,B,]2 | [A,,A,]6 || !fermata![A,C]2 | %10
 [D,D]2 [D,A,]2 [D,A,]2 (B,C) |!<(! [D,D]3!<)! [D,D] [D,D]2 z2 |!<(! [A,C]3!<)! [A,C] [A,C]2 z2 | %13
!<(! [D,B,]3!<)! [D,A,] [D,A,]2 [D,D]2 | [D,D]2 [D,A,]2 [D,A,]2 (B,C) | %15
!<(! [D,D]3!<)! [D,D] [D,D]2 [G,,B,]2 | [A,,A,]2 [A,,F,]2 [A,,E,]2 (A,G,) | [D,F,]6 |] %18
V:4
 x2 | x8 | x8 | x8 | x8 | x8 | x8 | x8 | x6 || x2 | x6 D,2 | x8 | x8 | x8 | x6 D,2 | x8 | x6 A,,2 | %17
 x6 |] %18

